;FLAVOR:UltiGCode
;TIME:3144
;MATERIAL:5589
;MATERIAL2:0
;NOZZLE_DIAMETER:0.4
;Generated with Cura_SteamEngine 4.0.0
M82 ;absolute extrusion mode

G92 E0
G10
;LAYER_COUNT:49
;LAYER:0
M107
G0 F4500 X83.046 Y80.494 Z0.27
;TYPE:SKIRT
G11
G1 F1800 X85.547 Y78.126 E0.32548
G1 X86.194 Y77.576 E0.40572
G1 X88.934 Y75.492 E0.73104
G1 X89.641 Y75.012 E0.81179
G1 X92.588 Y73.239 E1.1368
G1 X93.34 Y72.84 E1.21725
G1 X96.464 Y71.394 E1.54256
G1 X97.26 Y71.077 E1.62352
G1 X100.522 Y69.979 E1.94878
G1 X101.339 Y69.752 E2.02891
G1 X104.702 Y69.011 E2.35434
G1 X105.546 Y68.873 E2.43515
G1 X108.968 Y68.501 E2.76044
G1 X109.819 Y68.455 E2.84097
G1 X113.259 Y68.455 E3.16605
G1 X114.11 Y68.501 E3.24659
G1 X117.532 Y68.873 E3.57187
G1 X118.376 Y69.011 E3.65269
G1 X121.739 Y69.752 E3.97812
G1 X122.556 Y69.979 E4.05825
G1 X125.818 Y71.077 E4.3835
G1 X126.612 Y71.394 E4.4643
G1 X129.734 Y72.838 E4.78935
G1 X130.489 Y73.238 E4.8701
G1 X133.438 Y75.013 E5.19536
G1 X134.144 Y75.492 E5.27599
G1 X136.884 Y77.576 E5.6013
G1 X137.531 Y78.126 E5.68155
G1 X140.032 Y80.494 E6.00702
G1 X140.62 Y81.114 E6.08777
G1 X142.846 Y83.735 E6.41273
G1 X143.362 Y84.413 E6.49325
G1 X145.294 Y87.262 E6.81854
G1 X145.734 Y87.994 E6.89925
G1 X147.346 Y91.035 E7.22451
G1 X147.703 Y91.806 E7.3048
G1 X148.979 Y95.006 E7.63035
G1 X149.252 Y95.816 E7.71113
G1 X150.172 Y99.13 E8.03614
G1 X150.355 Y99.963 E8.11674
G1 X150.912 Y103.36 E8.44204
G1 X151.004 Y104.208 E8.52265
G1 X151.19 Y107.645 E8.84792
G1 X151.19 Y108.497 E8.92844
G1 X151.004 Y111.934 E9.25371
G1 X150.912 Y112.782 E9.33431
G1 X150.355 Y116.18 E9.65971
G1 X150.172 Y117.014 E9.7404
G1 X149.251 Y120.329 E10.06553
G1 X148.979 Y121.136 E10.14601
G1 X147.705 Y124.333 E10.47123
G1 X147.347 Y125.106 E10.55173
G1 X145.735 Y128.147 E10.87698
G1 X145.295 Y128.878 E10.95761
G1 X143.362 Y131.729 E11.28312
G1 X142.846 Y132.408 E11.36371
G1 X140.62 Y135.029 E11.68867
G1 X140.032 Y135.649 E11.76942
G1 X137.531 Y138.017 E12.09489
G1 X136.884 Y138.567 E12.17514
G1 X134.144 Y140.651 E12.50045
G1 X133.438 Y141.13 E12.58108
G1 X130.491 Y142.904 E12.90613
G1 X129.736 Y143.304 E12.98688
G1 X126.612 Y144.749 E13.31215
G1 X125.818 Y145.066 E13.39294
G1 X122.556 Y146.164 E13.71819
G1 X121.739 Y146.391 E13.79832
G1 X118.376 Y147.132 E14.12375
G1 X117.532 Y147.27 E14.20457
G1 X114.11 Y147.642 E14.52985
G1 X113.259 Y147.688 E14.61039
G1 X109.819 Y147.688 E14.93547
G1 X108.968 Y147.642 E15.016
G1 X105.546 Y147.27 E15.34129
G1 X104.702 Y147.132 E15.42211
G1 X101.339 Y146.391 E15.74753
G1 X100.522 Y146.164 E15.82766
G1 X97.26 Y145.066 E16.15292
G1 X96.466 Y144.749 E16.23371
G1 X93.342 Y143.304 E16.55898
G1 X92.587 Y142.904 E16.63972
G1 X89.64 Y141.13 E16.96478
G1 X88.934 Y140.651 E17.0454
G1 X86.194 Y138.567 E17.37072
G1 X85.547 Y138.017 E17.45096
G1 X83.046 Y135.649 E17.77644
G1 X82.458 Y135.029 E17.85719
G1 X80.232 Y132.408 E18.18215
G1 X79.716 Y131.729 E18.26274
G1 X77.783 Y128.878 E18.58824
G1 X77.343 Y128.147 E18.66887
G1 X75.731 Y125.106 E18.99412
G1 X75.373 Y124.333 E19.07463
G1 X74.099 Y121.136 E19.39985
G1 X73.827 Y120.329 E19.48032
G1 X72.906 Y117.014 E19.80546
G1 X72.723 Y116.18 E19.88615
G1 X72.166 Y112.782 E20.21154
G1 X72.074 Y111.934 E20.29215
G1 X71.888 Y108.499 E20.61723
G1 X71.888 Y107.647 E20.69775
G1 X72.074 Y104.21 E21.02302
G1 X72.166 Y103.362 E21.10362
G1 X72.723 Y99.963 E21.42911
G1 X72.907 Y99.128 E21.50991
G1 X73.828 Y95.814 E21.83496
G1 X74.099 Y95.009 E21.91522
G1 X75.373 Y91.811 E22.24053
G1 X75.731 Y91.037 E22.32112
G1 X77.343 Y87.996 E22.64637
G1 X77.783 Y87.265 E22.727
G1 X79.716 Y84.414 E23.05251
G1 X80.232 Y83.735 E23.1331
G1 X82.458 Y81.114 E23.45806
G1 X83.046 Y80.494 E23.53881
G0 F4500 X83.286 Y80.748
G1 F1800 X85.787 Y78.38 E23.86428
G1 X86.406 Y77.855 E23.94098
G1 X89.146 Y75.771 E24.2663
G1 X89.822 Y75.312 E24.34351
G1 X92.769 Y73.539 E24.66852
G1 X93.487 Y73.158 E24.74533
G1 X96.611 Y71.712 E25.07064
G1 X97.371 Y71.409 E25.14796
G1 X100.633 Y70.311 E25.47321
G1 X101.415 Y70.094 E25.54991
G1 X104.778 Y69.353 E25.87533
G1 X105.584 Y69.221 E25.95251
G1 X109.006 Y68.849 E26.2778
G1 X109.819 Y68.805 E26.35474
G1 X113.259 Y68.805 E26.67982
G1 X114.072 Y68.849 E26.75676
G1 X117.494 Y69.221 E27.08204
G1 X118.3 Y69.353 E27.15923
G1 X121.663 Y70.094 E27.48465
G1 X122.445 Y70.311 E27.56134
G1 X125.707 Y71.409 E27.8866
G1 X126.465 Y71.711 E27.9637
G1 X129.587 Y73.155 E28.28876
G1 X130.309 Y73.538 E28.366
G1 X133.258 Y75.313 E28.69126
G1 X133.932 Y75.771 E28.76827
G1 X136.672 Y77.855 E29.09359
G1 X137.291 Y78.38 E29.17029
G1 X139.792 Y80.748 E29.49576
G1 X140.354 Y81.341 E29.57297
G1 X142.58 Y83.962 E29.89793
G1 X143.072 Y84.61 E29.97481
G1 X145.004 Y87.459 E30.30011
G1 X145.425 Y88.158 E30.37722
G1 X147.037 Y91.199 E30.70248
G1 X147.378 Y91.936 E30.77922
G1 X148.654 Y95.136 E31.10477
G1 X148.915 Y95.91 E31.18196
G1 X149.835 Y99.224 E31.50698
G1 X150.01 Y100.019 E31.5839
G1 X150.567 Y103.416 E31.90921
G1 X150.655 Y104.227 E31.9863
G1 X150.841 Y107.664 E32.31157
G1 X150.841 Y108.478 E32.38849
G1 X150.655 Y111.915 E32.71376
G1 X150.567 Y112.725 E32.79076
G1 X150.01 Y116.123 E33.11615
G1 X149.834 Y116.92 E33.19329
G1 X148.913 Y120.235 E33.51842
G1 X148.653 Y121.007 E33.5954
G1 X147.379 Y124.204 E33.92062
G1 X147.038 Y124.942 E33.99745
G1 X145.426 Y127.983 E34.3227
G1 X145.005 Y128.682 E34.39981
G1 X143.072 Y131.533 E34.72532
G1 X142.58 Y132.181 E34.8022
G1 X140.354 Y134.802 E35.12716
G1 X139.792 Y135.395 E35.20437
G1 X137.291 Y137.763 E35.52984
G1 X136.672 Y138.288 E35.60655
G1 X133.932 Y140.372 E35.93186
G1 X133.258 Y140.83 E36.00887
G1 X130.311 Y142.604 E36.33392
G1 X129.589 Y142.987 E36.41116
G1 X126.465 Y144.432 E36.73643
G1 X125.707 Y144.734 E36.81353
G1 X122.445 Y145.832 E37.13879
G1 X121.663 Y146.049 E37.21548
G1 X118.3 Y146.79 E37.54091
G1 X117.494 Y146.922 E37.61809
G1 X114.072 Y147.294 E37.94337
G1 X113.259 Y147.338 E38.02031
G1 X109.819 Y147.338 E38.34539
G1 X109.006 Y147.294 E38.42233
G1 X105.584 Y146.922 E38.74762
G1 X104.778 Y146.79 E38.8248
G1 X101.415 Y146.049 E39.15023
G1 X100.633 Y145.832 E39.22692
G1 X97.371 Y144.734 E39.55217
G1 X96.613 Y144.432 E39.62928
G1 X93.489 Y142.987 E39.95455
G1 X92.767 Y142.604 E40.03178
G1 X89.82 Y140.83 E40.35684
G1 X89.146 Y140.372 E40.43385
G1 X86.406 Y138.288 E40.75916
G1 X85.787 Y137.763 E40.83586
G1 X83.286 Y135.395 E41.16134
G1 X82.724 Y134.802 E41.23854
G1 X80.498 Y132.181 E41.5635
G1 X80.006 Y131.533 E41.64039
G1 X78.073 Y128.682 E41.96589
G1 X77.652 Y127.983 E42.04301
G1 X76.04 Y124.942 E42.36826
G1 X75.699 Y124.204 E42.44509
G1 X74.425 Y121.007 E42.77031
G1 X74.165 Y120.235 E42.84729
G1 X73.244 Y116.92 E43.17242
G1 X73.068 Y116.123 E43.24955
G1 X72.511 Y112.725 E43.57495
G1 X72.423 Y111.915 E43.65194
G1 X72.237 Y108.48 E43.97703
G1 X72.237 Y107.666 E44.05395
G1 X72.423 Y104.229 E44.37922
G1 X72.511 Y103.419 E44.45622
G1 X73.068 Y100.02 E44.78171
G1 X73.244 Y99.222 E44.85893
G1 X74.165 Y95.908 E45.18397
G1 X74.424 Y95.138 E45.26074
G1 X75.698 Y91.94 E45.58605
G1 X76.04 Y91.201 E45.663
G1 X77.652 Y88.16 E45.98826
G1 X78.073 Y87.461 E46.06537
G1 X80.006 Y84.61 E46.39087
G1 X80.498 Y83.962 E46.46776
G1 X82.724 Y81.341 E46.79272
G1 X83.286 Y80.748 E46.86992
G0 F4500 X83.527 Y81.002
G1 F1800 X86.028 Y78.634 E47.1954
G1 X86.617 Y78.133 E47.26847
G1 X89.357 Y76.049 E47.59379
G1 X90.002 Y75.612 E47.66741
G1 X92.949 Y73.839 E47.99242
G1 X93.634 Y73.476 E48.06568
G1 X96.758 Y72.03 E48.39099
G1 X97.483 Y71.741 E48.46474
G1 X100.745 Y70.643 E48.79
G1 X101.49 Y70.436 E48.86307
G1 X104.853 Y69.695 E49.18849
G1 X105.622 Y69.569 E49.26213
G1 X109.044 Y69.197 E49.58742
G1 X109.819 Y69.155 E49.66076
G1 X113.259 Y69.155 E49.98584
G1 X114.034 Y69.197 E50.05919
G1 X117.456 Y69.569 E50.38447
G1 X118.225 Y69.695 E50.45811
G1 X121.588 Y70.436 E50.78354
G1 X122.333 Y70.643 E50.85661
G1 X125.595 Y71.741 E51.18186
G1 X126.318 Y72.029 E51.25541
G1 X129.44 Y73.473 E51.58046
G1 X130.128 Y73.838 E51.65406
G1 X133.077 Y75.613 E51.97933
G1 X133.721 Y76.049 E52.05282
G1 X136.461 Y78.133 E52.37814
G1 X137.05 Y78.634 E52.45121
G1 X139.551 Y81.002 E52.77669
G1 X140.087 Y81.567 E52.85028
G1 X142.313 Y84.188 E53.17524
G1 X142.782 Y84.806 E53.24855
G1 X144.714 Y87.655 E53.57385
G1 X145.115 Y88.322 E53.6474
G1 X146.727 Y91.363 E53.97265
G1 X147.053 Y92.065 E54.04579
G1 X148.329 Y95.265 E54.37135
G1 X148.578 Y96.004 E54.44504
G1 X149.498 Y99.318 E54.77006
G1 X149.664 Y100.076 E54.84339
G1 X150.221 Y103.473 E55.16869
G1 X150.306 Y104.246 E55.24218
G1 X150.492 Y107.683 E55.56745
G1 X150.492 Y108.459 E55.64078
G1 X150.306 Y111.896 E55.96605
G1 X150.222 Y112.669 E56.03953
G1 X149.665 Y116.067 E56.36493
G1 X149.497 Y116.827 E56.43848
G1 X148.576 Y120.142 E56.76362
G1 X148.328 Y120.877 E56.83692
G1 X147.054 Y124.074 E57.16214
G1 X146.728 Y124.778 E57.23546
G1 X145.116 Y127.819 E57.56071
G1 X144.716 Y128.485 E57.63413
G1 X142.783 Y131.336 E57.95963
G1 X142.313 Y131.955 E58.03308
G1 X140.087 Y134.576 E58.35804
G1 X139.551 Y135.141 E58.43163
G1 X137.05 Y137.509 E58.75711
G1 X136.461 Y138.01 E58.83018
G1 X133.721 Y140.094 E59.1555
G1 X133.077 Y140.53 E59.22899
G1 X130.13 Y142.304 E59.55405
G1 X129.442 Y142.669 E59.62765
G1 X126.318 Y144.114 E59.95292
G1 X125.595 Y144.402 E60.02646
G1 X122.333 Y145.5 E60.35171
G1 X121.588 Y145.707 E60.42478
G1 X118.225 Y146.448 E60.75021
G1 X117.456 Y146.574 E60.82385
G1 X114.034 Y146.946 E61.14913
G1 X113.259 Y146.988 E61.22248
G1 X109.819 Y146.988 E61.54756
G1 X109.044 Y146.946 E61.6209
G1 X105.622 Y146.574 E61.94619
G1 X104.853 Y146.448 E62.01983
G1 X101.49 Y145.707 E62.34525
G1 X100.745 Y145.5 E62.41832
G1 X97.483 Y144.402 E62.74358
G1 X96.76 Y144.114 E62.81712
G1 X93.636 Y142.669 E63.14239
G1 X92.948 Y142.304 E63.21599
G1 X90.001 Y140.53 E63.54105
G1 X89.357 Y140.094 E63.61454
G1 X86.617 Y138.01 E63.93985
G1 X86.028 Y137.509 E64.01293
G1 X83.527 Y135.141 E64.3384
G1 X82.991 Y134.576 E64.412
G1 X80.765 Y131.955 E64.73696
G1 X80.295 Y131.336 E64.8104
G1 X78.362 Y128.485 E65.13591
G1 X77.962 Y127.819 E65.20933
G1 X76.35 Y124.778 E65.53458
G1 X76.024 Y124.074 E65.60789
G1 X74.75 Y120.877 E65.93312
G1 X74.502 Y120.142 E66.00642
G1 X73.581 Y116.827 E66.33155
G1 X73.413 Y116.067 E66.40511
G1 X72.856 Y112.669 E66.7305
G1 X72.772 Y111.896 E66.80398
G1 X72.586 Y108.461 E67.12906
G1 X72.586 Y107.685 E67.2024
G1 X72.772 Y104.248 E67.52767
G1 X72.856 Y103.476 E67.60105
G1 X73.413 Y100.077 E67.92654
G1 X73.581 Y99.316 E68.00019
G1 X74.502 Y96.002 E68.32523
G1 X74.749 Y95.268 E68.39842
G1 X76.023 Y92.07 E68.72373
G1 X76.35 Y91.365 E68.79717
G1 X77.962 Y88.324 E69.12242
G1 X78.362 Y87.658 E69.19583
G1 X80.295 Y84.807 E69.52134
G1 X80.765 Y84.188 E69.59479
G1 X82.991 Y81.567 E69.91975
G1 X83.527 Y81.002 E69.99334
G0 F4500 X83.768 Y81.256
G1 F1800 X86.269 Y78.888 E70.31882
G1 X86.829 Y78.412 E70.38827
G1 X89.569 Y76.328 E70.71359
G1 X90.183 Y75.912 E70.78367
G1 X93.13 Y74.139 E71.10868
G1 X93.781 Y73.793 E71.17835
G1 X96.905 Y72.347 E71.50366
G1 X97.595 Y72.073 E71.57382
G1 X100.857 Y70.975 E71.89907
G1 X101.565 Y70.778 E71.96852
G1 X104.928 Y70.037 E72.29394
G1 X105.659 Y69.917 E72.36395
G1 X109.081 Y69.545 E72.68923
G1 X109.819 Y69.505 E72.75908
G1 X113.259 Y69.505 E73.08416
G1 X113.997 Y69.545 E73.154
G1 X117.419 Y69.917 E73.47928
G1 X118.15 Y70.037 E73.54929
G1 X121.513 Y70.778 E73.87471
G1 X122.221 Y70.975 E73.94416
G1 X125.483 Y72.073 E74.26942
G1 X126.171 Y72.347 E74.3394
G1 X129.293 Y73.791 E74.66446
G1 X129.948 Y74.138 E74.7345
G1 X132.897 Y75.913 E75.05977
G1 X133.509 Y76.328 E75.12965
G1 X136.249 Y78.412 E75.45496
G1 X136.809 Y78.888 E75.52442
G1 X139.31 Y81.256 E75.84989
G1 X139.82 Y81.794 E75.91995
G1 X142.046 Y84.415 E76.2449
G1 X142.493 Y85.002 E76.31463
G1 X144.425 Y87.851 E76.63992
G1 X144.806 Y88.485 E76.70982
G1 X146.418 Y91.526 E77.03508
G1 X146.728 Y92.195 E77.10476
G1 X148.004 Y95.395 E77.43031
G1 X148.24 Y96.097 E77.5003
G1 X149.16 Y99.411 E77.82531
G1 X149.319 Y100.133 E77.89518
G1 X149.876 Y103.53 E78.22048
G1 X149.956 Y104.265 E78.29035
G1 X150.142 Y107.702 E78.61562
G1 X150.142 Y108.44 E78.68536
G1 X149.956 Y111.877 E79.01063
G1 X149.876 Y112.612 E79.0805
G1 X149.319 Y116.01 E79.4059
G1 X149.16 Y116.733 E79.47585
G1 X148.239 Y120.048 E79.80099
G1 X148.003 Y120.748 E79.8708
G1 X146.729 Y123.945 E80.19602
G1 X146.419 Y124.615 E80.26578
G1 X144.807 Y127.656 E80.59103
G1 X144.426 Y128.289 E80.66085
G1 X142.493 Y131.14 E80.98636
G1 X142.046 Y131.728 E81.05616
G1 X139.82 Y134.349 E81.38112
G1 X139.31 Y134.887 E81.45117
G1 X136.809 Y137.255 E81.77665
G1 X136.249 Y137.731 E81.8461
G1 X133.509 Y139.815 E82.17141
G1 X132.897 Y140.23 E82.24129
G1 X129.95 Y142.004 E82.56635
G1 X129.295 Y142.351 E82.63639
G1 X126.171 Y143.796 E82.96166
G1 X125.483 Y144.07 E83.03165
G1 X122.221 Y145.168 E83.3569
G1 X121.513 Y145.365 E83.42635
G1 X118.15 Y146.106 E83.75177
G1 X117.419 Y146.226 E83.82178
G1 X113.997 Y146.598 E84.14706
G1 X113.259 Y146.638 E84.21691
G1 X109.819 Y146.638 E84.54199
G1 X109.081 Y146.598 E84.61183
G1 X105.659 Y146.226 E84.93711
G1 X104.928 Y146.106 E85.00712
G1 X101.565 Y145.365 E85.33254
G1 X100.857 Y145.168 E85.40199
G1 X97.595 Y144.07 E85.72725
G1 X96.907 Y143.796 E85.79723
G1 X93.783 Y142.351 E86.1225
G1 X93.128 Y142.004 E86.19254
G1 X90.181 Y140.23 E86.5176
G1 X89.569 Y139.815 E86.58748
G1 X86.829 Y137.731 E86.91279
G1 X86.269 Y137.255 E86.98225
G1 X83.768 Y134.887 E87.30772
G1 X83.258 Y134.349 E87.37778
G1 X81.032 Y131.728 E87.70273
G1 X80.585 Y131.14 E87.77253
G1 X78.652 Y128.289 E88.09804
G1 X78.271 Y127.656 E88.16786
G1 X76.659 Y124.615 E88.49311
G1 X76.349 Y123.945 E88.56288
G1 X75.075 Y120.748 E88.8881
G1 X74.839 Y120.048 E88.9579
G1 X73.918 Y116.733 E89.28304
G1 X73.759 Y116.01 E89.35299
G1 X73.202 Y112.612 E89.67839
G1 X73.122 Y111.877 E89.74826
G1 X72.936 Y108.442 E90.07334
G1 X72.936 Y107.704 E90.14308
G1 X73.122 Y104.267 E90.46835
G1 X73.202 Y103.532 E90.53822
G1 X73.759 Y100.133 E90.86371
G1 X73.918 Y99.41 E90.93367
G1 X74.839 Y96.096 E91.25871
G1 X75.075 Y95.397 E91.32843
G1 X76.349 Y92.199 E91.65374
G1 X76.659 Y91.528 E91.72359
G1 X78.271 Y88.487 E92.04884
G1 X78.652 Y87.854 E92.11866
G1 X80.585 Y85.003 E92.44417
G1 X81.032 Y84.415 E92.51396
G1 X83.258 Y81.794 E92.83892
G1 X83.768 Y81.256 E92.90898
G0 F4500 X84.008 Y81.51
G1 F1800 X86.509 Y79.142 E93.23445
G1 X87.041 Y78.69 E93.30042
G1 X89.781 Y76.606 E93.62574
G1 X90.363 Y76.212 E93.69215
G1 X93.31 Y74.439 E94.01716
G1 X93.928 Y74.111 E94.08328
G1 X97.052 Y72.665 E94.40859
G1 X97.706 Y72.404 E94.47513
G1 X100.968 Y71.306 E94.80038
G1 X101.641 Y71.12 E94.86637
G1 X105.004 Y70.379 E95.19179
G1 X105.697 Y70.265 E95.25816
G1 X109.119 Y69.893 E95.58344
G1 X109.819 Y69.855 E95.64969
G1 X113.259 Y69.855 E95.97477
G1 X113.959 Y69.893 E96.04102
G1 X117.381 Y70.265 E96.3663
G1 X118.074 Y70.379 E96.43267
G1 X121.437 Y71.12 E96.7581
G1 X122.11 Y71.306 E96.82408
G1 X125.372 Y72.404 E97.14934
G1 X126.024 Y72.664 E97.21567
G1 X129.146 Y74.108 E97.54073
G1 X129.767 Y74.437 E97.60714
G1 X132.716 Y76.212 E97.9324
G1 X133.297 Y76.606 E97.99874
G1 X136.037 Y78.69 E98.32406
G1 X136.569 Y79.142 E98.39003
G1 X139.07 Y81.51 E98.7155
G1 X139.553 Y82.02 E98.78188
G1 X141.779 Y84.641 E99.10684
G1 X142.203 Y85.199 E99.17307
G1 X144.135 Y88.048 E99.49836
G1 X144.497 Y88.649 E99.56466
G1 X146.109 Y91.69 E99.88992
G1 X146.402 Y92.325 E99.95601
G1 X147.678 Y95.525 E100.28156
G1 X147.903 Y96.191 E100.34799
G1 X148.823 Y99.505 E100.67301
G1 X148.974 Y100.189 E100.7392
G1 X149.531 Y103.586 E101.06451
G1 X149.607 Y104.284 E101.13086
G1 X149.793 Y107.721 E101.45613
G1 X149.793 Y108.421 E101.52228
G1 X149.607 Y111.858 E101.84755
G1 X149.531 Y112.555 E101.91381
G1 X148.974 Y115.953 E102.2392
G1 X148.823 Y116.639 E102.30558
G1 X147.902 Y119.954 E102.63072
G1 X147.678 Y120.618 E102.69694
G1 X146.404 Y123.815 E103.02216
G1 X146.11 Y124.451 E103.08837
G1 X144.498 Y127.492 E103.41363
G1 X144.136 Y128.093 E103.47993
G1 X142.203 Y130.944 E103.80543
G1 X141.779 Y131.502 E103.87166
G1 X139.553 Y134.123 E104.19662
G1 X139.07 Y134.633 E104.263
G1 X136.569 Y137.001 E104.58847
G1 X136.037 Y137.453 E104.65444
