;FLAVOR:UltiGCode
;TIME:3200
;MATERIAL:6005
;MATERIAL2:0
;NOZZLE_DIAMETER:0.4
;Generated with Cura_SteamEngine 4.0.0
M82 ;absolute extrusion mode

G92 E0
G10
;LAYER_COUNT:36
;LAYER:0
M107
G0 F4500 X80.417 Y81.903 Z0.27
;TYPE:SKIRT
G11
G1 F1800 X77.757 Y84.972 E0.3838
G1 X75.402 Y88.279 E0.76745
G1 X73.345 Y91.843 E1.15632
G1 X72.678 Y93.301 E1.30783
G1 X72.693 Y93.396 E1.31692
G1 X72.74 Y94.189 E1.39199
G1 X72.706 Y94.981 E1.4669
G1 X72.631 Y95.562 E1.52226
G1 X72.39 Y96.993 E1.6594
G1 X72.381 Y97.271 E1.68568
G1 X72.422 Y97.823 E1.73799
G1 X72.504 Y98.286 E1.78243
G1 X72.627 Y98.722 E1.82524
G1 X72.793 Y99.133 E1.86712
G1 X73.047 Y99.615 E1.91861
G1 X73.295 Y99.987 E1.96086
G1 X73.593 Y100.346 E2.00495
G1 X73.936 Y100.682 E2.05032
G1 X74.301 Y100.97 E2.09426
G1 X74.724 Y101.241 E2.14173
G1 X75.185 Y101.473 E2.1905
G1 X75.615 Y101.636 E2.23396
G1 X76.028 Y101.746 E2.27435
G1 X76.597 Y101.835 E2.32877
G1 X77.158 Y101.863 E2.38186
G1 X96.893 Y101.863 E4.24681
G1 X97.685 Y101.903 E4.32175
G1 X98.47 Y102.022 E4.39678
G1 X99.238 Y102.22 E4.47173
G1 X99.983 Y102.495 E4.54678
G1 X100.382 Y102.689 E4.5887
G1 X100.764 Y102.237 E4.64463
G1 X101.675 Y101.277 E4.76969
G1 X102.249 Y100.73 E4.84462
G1 X102.694 Y100.388 E4.89766
G1 X102.516 Y100.03 E4.93544
G1 X102.237 Y99.287 E5.01044
G1 X102.034 Y98.52 E5.08542
G1 X101.909 Y97.736 E5.16044
G1 X101.863 Y96.889 E5.2406
G1 X101.863 Y77.122 E7.10858
G1 X101.837 Y76.594 E7.15854
G1 X101.748 Y76.043 E7.21129
G1 X101.637 Y75.625 E7.25216
G1 X101.463 Y75.163 E7.29881
G1 X101.241 Y74.721 E7.34555
G1 X100.998 Y74.342 E7.38809
G1 X100.672 Y73.929 E7.43782
G1 X100.352 Y73.603 E7.48099
G1 X99.993 Y73.305 E7.52508
G1 X99.583 Y73.031 E7.57168
G1 X99.137 Y72.795 E7.61936
G1 X98.728 Y72.63 E7.66104
G1 X98.294 Y72.507 E7.70367
G1 X97.788 Y72.418 E7.75222
G1 X97.277 Y72.38 E7.80064
G1 X96.8 Y72.395 E7.84574
G1 X96.389 Y72.45 E7.88492
G1 X95.779 Y72.599 E7.94426
G1 X95 Y72.749 E8.01923
G1 X94.209 Y72.819 E8.09427
G1 X93.416 Y72.81 E8.16922
G1 X93.067 Y72.771 E8.2024
G1 X90.025 Y74.337 E8.52573
G1 X86.615 Y76.529 E8.90881
G1 X83.405 Y79.056 E9.29487
G1 X80.417 Y81.903 E9.68489
G0 F4500 X80.162 Y81.662
G1 F1800 X77.484 Y84.752 E10.0713
G1 X75.108 Y88.09 E10.45849
G1 X73.031 Y91.687 E10.851
G1 X72.313 Y93.255 E11.01398
G1 X72.364 Y93.626 E11.04936
G1 X72.389 Y94.401 E11.12264
G1 X72.286 Y95.503 E11.22723
G1 X72.041 Y96.96 E11.36685
G1 X72.031 Y97.276 E11.39673
G1 X72.075 Y97.87 E11.45302
G1 X72.162 Y98.365 E11.50051
G1 X72.295 Y98.835 E11.54667
G1 X72.472 Y99.276 E11.59158
G1 X72.746 Y99.793 E11.64687
G1 X73.016 Y100.199 E11.69295
G1 X73.338 Y100.588 E11.74067
G1 X73.697 Y100.939 E11.78811
G1 X74.096 Y101.254 E11.83615
G1 X74.561 Y101.551 E11.88829
G1 X75.04 Y101.792 E11.93897
G1 X75.506 Y101.969 E11.98607
G1 X75.96 Y102.089 E12.03045
G1 X76.554 Y102.183 E12.08728
G1 X77.16 Y102.213 E12.14462
G1 X96.893 Y102.213 E14.00939
G1 X97.668 Y102.253 E14.08272
G1 X98.434 Y102.372 E14.15598
G1 X99.184 Y102.57 E14.22928
G1 X99.91 Y102.844 E14.30261
G1 X100.47 Y103.124 E14.36178
G1 X101.018 Y102.478 E14.44183
G1 X101.929 Y101.518 E14.5669
G1 X102.491 Y100.984 E14.64016
G1 X103.136 Y100.49 E14.71693
G1 X103.083 Y100.401 E14.72672
G1 X102.757 Y99.697 E14.80004
G1 X102.505 Y98.963 E14.87337
G1 X102.329 Y98.208 E14.94663
G1 X102.233 Y97.438 E15.01996
G1 X102.213 Y96.889 E15.07188
G1 X102.213 Y77.124 E16.93967
G1 X102.184 Y76.548 E16.99417
G1 X102.093 Y75.978 E17.04872
G1 X101.972 Y75.523 E17.09321
G1 X101.784 Y75.024 E17.1436
G1 X101.54 Y74.539 E17.19491
G1 X101.281 Y74.134 E17.24033
G1 X100.94 Y73.704 E17.2922
G1 X100.589 Y73.344 E17.33971
G1 X100.202 Y73.023 E17.38723
G1 X99.766 Y72.732 E17.43676
G1 X99.287 Y72.479 E17.48795
G1 X98.844 Y72.3 E17.5331
G1 X98.362 Y72.163 E17.58046
G1 X97.833 Y72.07 E17.63122
G1 X97.283 Y72.029 E17.68333
G1 X96.782 Y72.045 E17.7307
G1 X96.317 Y72.107 E17.77503
G1 X95.696 Y72.259 E17.83545
G1 X94.934 Y72.404 E17.90875
G1 X94.161 Y72.471 E17.98207
G1 X93.385 Y72.457 E18.05542
G1 X93.003 Y72.41 E18.09179
G1 X89.839 Y74.039 E18.42809
G1 X86.421 Y76.236 E18.81206
G1 X83.172 Y78.794 E19.20283
G1 X80.162 Y81.662 E19.59572
G0 F4500 X79.909 Y81.42
G1 F1800 X77.21 Y84.534 E19.98515
G1 X74.813 Y87.901 E20.37572
G1 X72.719 Y91.526 E20.77133
G1 X71.957 Y93.194 E20.94463
G1 X72.029 Y93.85 E21.00699
G1 X72.031 Y94.608 E21.07862
G1 X71.94 Y95.445 E21.15818
G1 X71.692 Y96.92 E21.29953
G1 X71.68 Y97.282 E21.33376
G1 X71.727 Y97.91 E21.39327
G1 X71.822 Y98.449 E21.44499
G1 X71.962 Y98.942 E21.49342
G1 X72.156 Y99.426 E21.54269
G1 X72.445 Y99.972 E21.60107
G1 X72.734 Y100.406 E21.65035
G1 X73.085 Y100.83 E21.70236
G1 X73.468 Y101.204 E21.75295
G1 X73.893 Y101.54 E21.80415
G1 X74.382 Y101.852 E21.85896
G1 X74.899 Y102.113 E21.91369
G1 X75.399 Y102.302 E21.96421
G1 X75.894 Y102.434 E22.01262
G1 X76.521 Y102.532 E22.07259
G1 X77.143 Y102.563 E22.13144
G1 X96.893 Y102.563 E23.99782
G1 X97.649 Y102.603 E24.06936
G1 X98.397 Y102.722 E24.14093
G1 X99.128 Y102.92 E24.2125
G1 X99.835 Y103.194 E24.28416
G1 X100.508 Y103.54 E24.35567
G1 X100.58 Y103.587 E24.36379
G1 X100.758 Y103.324 E24.3938
G1 X101.271 Y102.719 E24.46876
G1 X102.182 Y101.759 E24.59383
G1 X102.732 Y101.238 E24.66542
G1 X103.342 Y100.772 E24.73796
G1 X103.601 Y100.595 E24.76761
G1 X103.303 Y100.063 E24.82523
G1 X103.004 Y99.367 E24.89681
G1 X102.781 Y98.643 E24.9684
G1 X102.635 Y97.9 E25.03996
G1 X102.563 Y96.889 E25.13574
G1 X102.563 Y77.107 E27.00514
G1 X102.534 Y76.521 E27.06059
G1 X102.434 Y75.901 E27.11993
G1 X102.303 Y75.407 E27.16823
G1 X102.107 Y74.887 E27.22074
G1 X101.844 Y74.364 E27.27607
G1 X101.571 Y73.937 E27.32396
G1 X101.2 Y73.468 E27.38047
G1 X100.826 Y73.086 E27.43099
G1 X100.414 Y72.744 E27.48159
G1 X99.942 Y72.429 E27.53521
G1 X99.43 Y72.159 E27.58991
G1 X98.962 Y71.969 E27.63765
G1 X98.441 Y71.821 E27.68883
G1 X97.879 Y71.723 E27.74274
G1 X97.299 Y71.68 E27.7977
G1 X96.744 Y71.697 E27.85017
G1 X96.25 Y71.763 E27.89727
G1 X95.612 Y71.919 E27.95934
G1 X94.868 Y72.06 E28.0309
G1 X94.113 Y72.122 E28.10248
G1 X93.356 Y72.104 E28.17404
G1 X92.939 Y72.05 E28.21378
G1 X89.666 Y73.735 E28.56166
G1 X86.211 Y75.955 E28.94974
G1 X82.944 Y78.528 E29.34273
G1 X79.909 Y81.42 E29.73889
G0 F4500 X79.654 Y81.179
G1 F1800 X76.936 Y84.314 E30.13099
G1 X74.513 Y87.719 E30.52592
G1 X72.414 Y91.354 E30.92258
G1 X71.593 Y93.15 E31.1092
G1 X71.628 Y93.335 E31.12699
G1 X71.688 Y94.071 E31.19677
G1 X71.667 Y94.809 E31.26654
G1 X71.595 Y95.387 E31.32158
G1 X71.343 Y96.881 E31.46476
G1 X71.33 Y97.297 E31.50409
G1 X71.379 Y97.957 E31.56663
G1 X71.48 Y98.524 E31.62106
G1 X71.628 Y99.051 E31.67279
G1 X71.839 Y99.576 E31.72626
G1 X72.145 Y100.154 E31.78806
G1 X72.45 Y100.612 E31.84006
G1 X72.821 Y101.06 E31.89503
G1 X73.243 Y101.473 E31.95083
G1 X73.69 Y101.826 E32.00465
G1 X74.207 Y102.156 E32.06261
G1 X74.754 Y102.432 E32.12051
G1 X75.301 Y102.639 E32.17578
G1 X75.808 Y102.773 E32.22534
G1 X76.496 Y102.881 E32.29115
G1 X77.125 Y102.913 E32.35067
G1 X96.893 Y102.913 E34.21874
G1 X97.631 Y102.953 E34.28859
G1 X98.359 Y103.072 E34.3583
G1 X99.071 Y103.27 E34.42813
G1 X99.757 Y103.543 E34.49791
G1 X100.41 Y103.889 E34.56774
G1 X100.675 Y104.068 E34.59796
G1 X101.048 Y103.521 E34.66053
G1 X101.525 Y102.96 E34.73011
G1 X102.436 Y102 E34.85518
G1 X102.973 Y101.492 E34.92504
G1 X103.54 Y101.061 E34.99234
G1 X104.082 Y100.691 E35.05436
G1 X103.874 Y100.381 E35.08963
G1 X103.531 Y99.726 E35.15951
G1 X103.261 Y99.039 E35.22926
G1 X103.066 Y98.326 E35.29911
G1 X102.95 Y97.597 E35.36887
G1 X102.913 Y96.889 E35.43587
G1 X102.913 Y77.089 E37.30697
G1 X102.883 Y76.486 E37.36402
G1 X102.777 Y75.827 E37.4271
G1 X102.64 Y75.311 E37.47755
G1 X102.425 Y74.739 E37.5353
G1 X102.152 Y74.196 E37.59273
G1 X101.852 Y73.727 E37.64534
G1 X101.465 Y73.238 E37.70427
G1 X101.068 Y72.833 E37.75787
G1 X100.616 Y72.458 E37.81337
G1 X100.122 Y72.128 E37.86951
G1 X99.585 Y71.844 E37.92691
G1 X99.07 Y71.636 E37.9794
G1 X98.528 Y71.482 E38.03265
G1 X97.915 Y71.375 E38.09145
G1 X97.305 Y71.329 E38.14926
G1 X96.715 Y71.347 E38.20504
G1 X96.186 Y71.418 E38.25548
G1 X95.529 Y71.579 E38.3194
G1 X94.803 Y71.716 E38.38922
G1 X94.067 Y71.773 E38.45898
G1 X93.328 Y71.751 E38.52885
G1 X92.877 Y71.688 E38.57188
G1 X89.497 Y73.428 E38.93113
G1 X86.007 Y75.671 E39.32318
G1 X82.711 Y78.266 E39.7196
G1 X79.654 Y81.179 E40.11864
G0 F4500 X79.401 Y80.938
G1 F1800 X76.659 Y84.101 E40.51422
G1 X74.218 Y87.529 E40.91191
G1 X72.098 Y91.202 E41.31267
G1 X71.228 Y93.103 E41.51024
G1 X71.303 Y93.567 E41.55465
G1 X71.34 Y94.286 E41.62269
G1 X71.25 Y95.329 E41.72162
G1 X70.994 Y96.848 E41.86719
G1 X70.98 Y97.3 E41.90992
G1 X71.032 Y98.004 E41.97663
G1 X71.138 Y98.602 E42.03402
G1 X71.298 Y99.17 E42.08979
G1 X71.519 Y99.718 E42.14563
G1 X71.843 Y100.332 E42.21123
G1 X72.171 Y100.824 E42.26711
G1 X72.568 Y101.303 E42.3259
G1 X73.003 Y101.729 E42.38344
G1 X73.49 Y102.113 E42.44205
G1 X74.032 Y102.46 E42.50286
G1 X74.621 Y102.756 E42.56516
G1 X75.186 Y102.971 E42.62229
G1 X75.741 Y103.118 E42.67654
G1 X76.452 Y103.229 E42.74455
G1 X77.127 Y103.263 E42.80841
G1 X96.893 Y103.263 E44.6763
G1 X97.611 Y103.303 E44.74426
G1 X98.321 Y103.422 E44.81229
G1 X99.013 Y103.62 E44.88031
G1 X99.678 Y103.893 E44.94824
G1 X100.31 Y104.238 E45.01628
G1 X100.779 Y104.567 E45.07042
G1 X100.932 Y104.313 E45.09844
G1 X101.337 Y103.718 E45.16646
G1 X101.779 Y103.201 E45.23073
G1 X102.69 Y102.241 E45.3558
G1 X103.214 Y101.747 E45.42385
G1 X103.737 Y101.35 E45.4859
G1 X104.572 Y100.78 E45.58144
G1 X104.466 Y100.648 E45.59744
G1 X104.081 Y100.04 E45.66545
G1 X103.767 Y99.392 E45.7335
G1 X103.526 Y98.715 E45.8014
G1 X103.361 Y98.014 E45.86946
G1 X103.276 Y97.3 E45.93741
G1 X103.263 Y96.889 E45.97627
G1 X103.263 Y77.092 E47.84708
G1 X103.231 Y76.449 E47.90792
G1 X103.119 Y75.751 E47.97473
G1 X102.972 Y75.196 E48.02898
G1 X102.75 Y74.607 E48.08847
G1 X102.456 Y74.022 E48.15034
G1 X102.138 Y73.526 E48.20602
G1 X101.724 Y73.003 E48.26905
G1 X101.3 Y72.57 E48.32632
G1 X100.834 Y72.183 E48.38356
G1 X100.3 Y71.826 E48.44426
G1 X99.724 Y71.522 E48.50581
G1 X99.187 Y71.305 E48.56054
G1 X98.608 Y71.14 E48.61744
G1 X97.96 Y71.027 E48.6796
G1 X97.311 Y70.979 E48.7411
G1 X96.688 Y70.998 E48.8
G1 X96.122 Y71.074 E48.85396
G1 X95.446 Y71.239 E48.91972
G1 X94.739 Y71.371 E48.98769
G1 X94.021 Y71.424 E49.05572
G1 X93.302 Y71.397 E49.12372
G1 X92.819 Y71.324 E49.16988
G1 X89.317 Y73.127 E49.5421
G1 X85.803 Y75.385 E49.93682
G1 X82.489 Y77.995 E50.33546
G1 X79.401 Y80.938 E50.73858
G0 F4500 X79.151 Y80.691
G1 F1800 X76.385 Y83.882 E51.13765
G1 X73.923 Y87.34 E51.53879
G1 X71.786 Y91.041 E51.94265
G1 X70.868 Y93.05 E52.15138
G1 X70.881 Y93.102 E52.15645
G1 X70.973 Y93.796 E52.2226
G1 X70.985 Y94.495 E52.28867
G1 X70.905 Y95.271 E52.36239
G1 X70.645 Y96.816 E52.51044
G1 X70.629 Y97.308 E52.55696
G1 X70.684 Y98.042 E52.62652
G1 X70.796 Y98.678 E52.68755
G1 X70.967 Y99.283 E52.74696
G1 X71.206 Y99.875 E52.80729
G1 X71.54 Y100.507 E52.87484
G1 X71.892 Y101.036 E52.93489
G1 X72.309 Y101.54 E52.99671
G1 X72.773 Y101.994 E53.05805
G1 X73.287 Y102.399 E53.11989
G1 X73.857 Y102.764 E53.18385
G1 X74.476 Y103.075 E53.24932
G1 X75.077 Y103.303 E53.31006
G1 X75.675 Y103.462 E53.36853
G1 X76.418 Y103.578 E53.4396
G1 X77.11 Y103.613 E53.50508
G1 X96.893 Y103.613 E55.37457
G1 X97.592 Y103.653 E55.44073
G1 X98.281 Y103.772 E55.50681
G1 X98.952 Y103.97 E55.57292
G1 X99.597 Y104.242 E55.63907
G1 X100.206 Y104.586 E55.70517
G1 X100.772 Y104.998 E55.77132
G1 X100.872 Y105.09 E55.78417
G1 X101.232 Y104.494 E55.84996
G1 X101.627 Y103.916 E55.91612
G1 X102.033 Y103.442 E55.9751
G1 X102.944 Y102.482 E56.10017
G1 X103.454 Y102.003 E56.16629
G1 X103.934 Y101.639 E56.22321
G1 X105.075 Y100.86 E56.35377
G1 X104.652 Y100.302 E56.41994
G1 X104.296 Y99.7 E56.48603
G1 X104.011 Y99.061 E56.55215
G1 X103.801 Y98.394 E56.61823
G1 X103.668 Y97.707 E56.68436
G1 X103.613 Y96.889 E56.76184
G1 X103.613 Y77.074 E58.63435
G1 X103.58 Y76.413 E58.6969
G1 X103.463 Y75.684 E58.76667
G1 X103.306 Y75.093 E58.82445
G1 X103.067 Y74.459 E58.88848
G1 X102.76 Y73.847 E58.95319
G1 X102.425 Y73.324 E59.01188
G1 X101.992 Y72.777 E59.07781
G1 X101.536 Y72.312 E59.13935
G1 X101.037 Y71.898 E59.20062
G1 X100.48 Y71.525 E59.26397
G1 X99.879 Y71.208 E59.32818
G1 X99.303 Y70.975 E59.3869
G1 X98.675 Y70.796 E59.44861
G1 X98.008 Y70.68 E59.51259
G1 X97.316 Y70.628 E59.57817
G1 X96.659 Y70.648 E59.64028
G1 X96.059 Y70.729 E59.69749
G1 X95.363 Y70.899 E59.7652
G1 X94.675 Y71.027 E59.83133
G1 X93.977 Y71.075 E59.89745
G1 X93.278 Y71.043 E59.96357
G1 X92.763 Y70.96 E60.01287
G1 X89.139 Y72.826 E60.39807
G1 X85.603 Y75.098 E60.79525
G1 X82.25 Y77.738 E61.19854
G1 X79.151 Y80.691 E61.60306
G0 F4500 X78.892 Y80.455
G1 F1800 X76.106 Y83.67 E62.00508
G1 X73.633 Y87.143 E62.40798
G1 X71.477 Y90.877 E62.81544
G1 X70.497 Y93.021 E63.03821
G1 X70.568 Y93.343 E63.06937
G1 X70.635 Y94.019 E63.13357
G1 X70.623 Y94.698 E63.19774
G1 X70.56 Y95.213 E63.24677
G1 X70.296 Y96.784 E63.39731
G1 X70.279 Y97.312 E63.44724
G1 X70.336 Y98.09 E63.52095
G1 X70.454 Y98.754 E63.58468
G1 X70.636 Y99.398 E63.64793
G1 X70.885 Y100.018 E63.71106
G1 X71.242 Y100.693 E63.78322
G1 X71.608 Y101.243 E63.84566
G1 X72.046 Y101.771 E63.91048
G1 X72.544 Y102.258 E63.97631
G1 X73.085 Y102.685 E64.04144
G1 X73.69 Y103.072 E64.10931
G1 X74.33 Y103.394 E64.17701
G1 X74.976 Y103.639 E64.2423
G1 X75.598 Y103.804 E64.30311
G1 X76.375 Y103.926 E64.37744
G1 X77.111 Y103.963 E64.44708
G1 X96.893 Y103.963 E66.31648
G1 X97.571 Y104.003 E66.38066
G1 X98.24 Y104.122 E66.44487
G1 X98.89 Y104.319 E66.50906
G1 X99.513 Y104.591 E66.5733
G1 X100.099 Y104.935 E66.63751
G1 X100.641 Y105.345 E66.70173
G1 X100.949 Y105.64 E66.74204
G1 X101.531 Y104.675 E66.84853
G1 X101.916 Y104.114 E66.91283
G1 X102.287 Y103.683 E66.96657
G1 X103.198 Y102.723 E67.09163
G1 X103.694 Y102.258 E67.15588
G1 X104.132 Y101.928 E67.20771
G1 X105.291 Y101.137 E67.34031
G1 X105.626 Y100.936 E67.37723
G1 X105.241 Y100.512 E67.43135
G1 X104.846 Y99.959 E67.49557
G1 X104.52 Y99.363 E67.55977
G1 X104.265 Y98.733 E67.62399
G1 X104.087 Y98.077 E67.68823
G1 X103.986 Y97.405 E67.75245
G1 X103.963 Y96.889 E67.80126
G1 X103.963 Y77.077 E69.67349
G1 X103.927 Y76.368 E69.74058
G1 X103.807 Y75.617 E69.81245
G1 X103.637 Y74.977 E69.87502
G1 X103.391 Y74.323 E69.94105
G1 X103.064 Y73.672 E70.0099
G1 X102.711 Y73.121 E70.07174
G1 X102.257 Y72.548 E70.14082
G1 X101.774 Y72.054 E70.20611
G1 X101.249 Y71.619 E70.27054
G1 X100.662 Y71.226 E70.3373
G1 X100.022 Y70.888 E70.40569
G1 X99.412 Y70.641 E70.46788
G1 X98.755 Y70.455 E70.53241
G1 X98.053 Y70.332 E70.59976
G1 X97.322 Y70.277 E70.66904
G1 X96.632 Y70.299 E70.73427
G1 X95.992 Y70.384 E70.79528
G1 X95.279 Y70.559 E70.86466
G1 X94.611 Y70.682 E70.92885
G1 X93.933 Y70.725 E70.99305
G1 X93.255 Y70.688 E71.05722
G1 X92.708 Y70.593 E71.10968
G1 X88.966 Y72.52 E71.50743
G1 X85.4 Y74.812 E71.90803
G1 X82.028 Y77.467 E72.3136
G1 X78.892 Y80.455 E72.72293
G0 F4500 X78.643 Y80.208
G1 F1800 X75.832 Y83.451 E73.1285
G1 X73.338 Y86.954 E73.53486
G1 X71.166 Y90.716 E73.94537
G1 X70.134 Y92.973 E74.17989
G1 X70.248 Y93.579 E74.23817
G1 X70.29 Y94.236 E74.30038
G1 X70.215 Y95.155 E74.38751
G1 X69.946 Y96.751 E74.54046
G1 X69.928 Y97.318 E74.59407
G1 X69.988 Y98.128 E74.67083
G1 X70.114 Y98.84 E74.73915
G1 X70.305 Y99.514 E74.80536
G1 X70.564 Y100.158 E74.87095
G1 X70.937 Y100.865 E74.94649
G1 X71.326 Y101.449 E75.0128
G1 X71.793 Y102.013 E75.082
G1 X72.315 Y102.524 E75.15103
G1 X72.873 Y102.964 E75.21818
G1 X73.515 Y103.375 E75.29022
G1 X74.193 Y103.716 E75.36194
G1 X74.87 Y103.973 E75.43037
G1 X75.529 Y104.148 E75.4948
G1 X76.342 Y104.275 E75.57256
G1 X77.094 Y104.313 E75.64372
G1 X96.893 Y104.313 E77.51472
G1 X97.55 Y104.353 E77.57692
G1 X98.198 Y104.472 E77.63918
G1 X98.826 Y104.669 E77.70138
G1 X99.426 Y104.941 E77.76363
G1 X99.989 Y105.283 E77.82589
G1 X100.506 Y105.691 E77.88812
G1 X100.969 Y106.158 E77.95027
G1 X101.023 Y106.227 E77.95855
G1 X101.116 Y106.04 E77.97828
G1 X101.831 Y104.855 E78.10907
G1 X102.205 Y104.313 E78.1713
G1 X102.541 Y103.924 E78.21988
